site/static/img/react_logo.svg

<svg width="21" height="19" viewBox="0 0 21 19" fill="none" xmlns="http://www.w3.org/2000/svg">
<path d="M20.2124 9.06244C20.2124 7.71448 18.5356 6.43703 15.9648 5.64484C16.558 3.00699 16.2943 0.908317 15.1325 0.236411C14.8647 0.0788037 14.5516 0.0041475 14.2097 0.0041475V0.929055C14.3992 0.929055 14.5516 0.966383 14.6793 1.03689C15.2396 1.3604 15.4827 2.59223 15.2932 4.1766C15.2479 4.56647 15.1737 4.97708 15.0831 5.39599C14.2756 5.1969 13.3939 5.04344 12.4669 4.9439C11.9107 4.1766 11.3339 3.47981 10.753 2.87012C12.0961 1.6134 13.3568 0.924908 14.2138 0.924908V0C13.0808 0 11.5976 0.812923 10.098 2.2231C8.59831 0.821219 7.11513 0.0165903 5.98215 0.0165903V0.941498C6.83497 0.941498 8.09979 1.62585 9.44289 2.87426C8.8661 3.48396 8.28931 4.1766 7.74136 4.9439C6.81025 5.04344 5.92859 5.1969 5.12108 5.40013C5.02632 4.98538 4.95628 4.58306 4.90684 4.19734C4.71321 2.61297 4.95216 1.38114 5.50835 1.05348C5.63195 0.978826 5.79263 0.945646 5.98215 0.945646V0.0207378C5.63607 0.0207378 5.32296 0.095394 5.05104 0.253002C3.89334 0.924908 3.63378 3.01943 4.23117 5.64899C1.66857 6.44532 0 7.71862 0 9.06244C0 10.4104 1.67681 11.6878 4.24765 12.48C3.65438 15.1179 3.91806 17.2166 5.07988 17.8885C5.34768 18.0461 5.66079 18.1207 6.00687 18.1207C7.13985 18.1207 8.62303 17.3078 10.1227 15.8976C11.6223 17.2995 13.1055 18.1041 14.2385 18.1041C14.5846 18.1041 14.8977 18.0295 15.1696 17.8719C16.3273 17.2 16.5869 15.1054 15.9895 12.4759C18.5438 11.6837 20.2124 10.4062 20.2124 9.06244ZM14.8482 6.29601C14.6958 6.83104 14.5063 7.38267 14.2921 7.9343C14.1231 7.60249 13.946 7.27069 13.7523 6.93888C13.5628 6.60708 13.361 6.28356 13.1591 5.96835C13.7441 6.05545 14.3085 6.16329 14.8482 6.29601ZM12.9613 10.7132C12.64 11.2731 12.3104 11.804 11.9684 12.2975C11.3545 12.3515 10.7324 12.3805 10.1062 12.3805C9.48409 12.3805 8.86198 12.3515 8.25223 12.3017C7.91028 11.8081 7.57656 11.2814 7.25521 10.7256C6.94209 10.1823 6.65782 9.63065 6.39826 9.07488C6.6537 8.5191 6.94209 7.96333 7.25109 7.42C7.57244 6.86008 7.90204 6.32919 8.24399 5.83563C8.85786 5.78171 9.47997 5.75268 10.1062 5.75268C10.7283 5.75268 11.3504 5.78171 11.9602 5.83148C12.3021 6.32504 12.6358 6.85178 12.9572 7.40756C13.2703 7.95089 13.5546 8.50251 13.8141 9.05829C13.5546 9.61406 13.2703 10.1698 12.9613 10.7132ZM14.2921 10.174C14.5145 10.7298 14.7041 11.2855 14.8606 11.8247C14.3209 11.9574 13.7523 12.0694 13.1632 12.1565C13.3651 11.8372 13.5669 11.5095 13.7565 11.1735C13.946 10.8417 14.1231 10.5058 14.2921 10.174ZM10.1144 14.5994C9.73129 14.2013 9.34813 13.7575 8.9691 13.2722C9.3399 13.2888 9.71893 13.3012 10.1021 13.3012C10.4894 13.3012 10.8725 13.293 11.2474 13.2722C10.8766 13.7575 10.4935 14.2013 10.1144 14.5994ZM7.04921 12.1565C6.46418 12.0694 5.89975 11.9616 5.36004 11.8289C5.51247 11.2938 5.70199 10.7422 5.91623 10.1906C6.08514 10.5224 6.2623 10.8542 6.45594 11.186C6.64958 11.5178 6.84733 11.8413 7.04921 12.1565ZM10.0938 3.52543C10.477 3.9236 10.8602 4.36739 11.2392 4.85265C10.8684 4.83606 10.4894 4.82362 10.1062 4.82362C9.71893 4.82362 9.33578 4.83192 8.96086 4.85265C9.33166 4.36739 9.71481 3.9236 10.0938 3.52543ZM7.04509 5.96835C6.84321 6.28771 6.64134 6.61537 6.45182 6.95132C6.2623 7.28313 6.08514 7.61493 5.91623 7.94674C5.69375 7.39097 5.50423 6.83519 5.34768 6.29601C5.88739 6.16743 6.45594 6.05545 7.04509 5.96835ZM3.31655 11.1611C1.85809 10.5348 0.914626 9.7136 0.914626 9.06244C0.914626 8.41127 1.85809 7.5859 3.31655 6.96377C3.67086 6.81031 4.05814 6.67344 4.45777 6.54486C4.69261 7.35779 5.0016 8.20389 5.38476 9.07073C5.00572 9.93342 4.70085 10.7754 4.47013 11.5842C4.06226 11.4556 3.67498 11.3146 3.31655 11.1611ZM5.53307 17.088C4.97276 16.7645 4.72969 15.5326 4.9192 13.9483C4.96452 13.5584 5.03868 13.1478 5.12932 12.7289C5.93683 12.928 6.81849 13.0814 7.74548 13.181C8.30167 13.9483 8.87846 14.6451 9.45937 15.2548C8.11627 16.5115 6.85557 17.2 5.99863 17.2C5.81323 17.1958 5.65667 17.1585 5.53307 17.088ZM15.3056 13.9275C15.4992 15.5119 15.2602 16.7437 14.7041 17.0714C14.5805 17.146 14.4198 17.1792 14.2303 17.1792C13.3774 17.1792 12.1126 16.4949 10.7695 15.2465C11.3463 14.6368 11.9231 13.9441 12.471 13.1768C13.4022 13.0773 14.2838 12.9238 15.0913 12.7206C15.1861 13.1395 15.2602 13.5418 15.3056 13.9275ZM16.8917 11.1611C16.5374 11.3146 16.1501 11.4514 15.7505 11.58C15.5157 10.7671 15.2067 9.92098 14.8235 9.05414C15.2026 8.19145 15.5074 7.34949 15.7382 6.54071C16.146 6.66929 16.5333 6.81031 16.8959 6.96377C18.3543 7.59005 19.2978 8.41127 19.2978 9.06244C19.2937 9.7136 18.3502 10.539 16.8917 11.1611Z" fill="#61DAFB"/>
<path d="M10.102 10.9588C11.1419 10.9588 11.9849 10.1102 11.9849 9.06341C11.9849 8.01659 11.1419 7.16797 10.102 7.16797C9.0622 7.16797 8.21924 8.01659 8.21924 9.06341C8.21924 10.1102 9.0622 10.9588 10.102 10.9588Z" fill="#61DAFB"/>
</svg>

<svg xmlns="http://www.w3.org/2000/svg" width="21" height="19" fill="none"><path fill="#61DAFB" d="M20.21 9.06c0-1.35-1.67-2.62-4.25-3.42.6-2.63.33-4.73-.83-5.4a1.8 1.8 0 0 0-.92-.24v.93c.19 0 .34.04.47.1.56.33.8 1.56.61 3.15-.04.39-.12.8-.2 1.22-.81-.2-1.7-.36-2.62-.46a20.2 20.2 0 0 0-1.72-2.07C12.1 1.61 13.35.92 14.21.92V0c-1.13 0-2.61.81-4.11 2.22C8.6.82 7.12.02 5.98.02v.92c.85 0 2.12.69 3.46 1.93-.57.61-1.15 1.3-1.7 2.07-.93.1-1.81.26-2.62.46-.1-.41-.16-.82-.21-1.2-.2-1.59.04-2.82.6-3.15.12-.07.28-.1.47-.1V.02c-.34 0-.66.08-.93.23-1.16.67-1.42 2.77-.82 5.4C1.67 6.45 0 7.72 0 9.06c0 1.35 1.68 2.63 4.25 3.42-.6 2.64-.33 4.74.83 5.4.27.17.58.24.93.24 1.13 0 2.61-.81 4.11-2.22 1.5 1.4 2.99 2.2 4.12 2.2.34 0 .66-.07.93-.23 1.16-.67 1.42-2.76.82-5.4 2.55-.79 4.22-2.06 4.22-3.4ZM14.85 6.3c-.15.53-.34 1.08-.56 1.63a19.69 19.69 0 0 0-1.13-1.96c.58.09 1.15.2 1.69.33Zm-1.89 4.41c-.32.56-.65 1.1-1 1.59a21.26 21.26 0 0 1-3.7 0A22.89 22.89 0 0 1 6.4 9.07a21.68 21.68 0 0 1 1.84-3.23 21.3 21.3 0 0 1 3.72 0 22.92 22.92 0 0 1 1.85 3.22c-.26.55-.54 1.11-.85 1.65Zm1.33-.54c.22.56.41 1.12.57 1.65-.54.14-1.1.25-1.7.34a22.94 22.94 0 0 0 1.13-1.99Zm-4.18 4.43c-.38-.4-.76-.84-1.14-1.33a25.32 25.32 0 0 0 2.28 0c-.37.49-.76.93-1.14 1.33Zm-3.06-2.44c-.59-.1-1.15-.2-1.69-.33.15-.54.34-1.09.56-1.64a19.66 19.66 0 0 0 1.13 1.97Zm3.04-8.63c.39.4.77.84 1.15 1.32a25.33 25.33 0 0 0-2.28 0c.37-.48.75-.93 1.13-1.32ZM7.05 5.97a22.94 22.94 0 0 0-1.13 1.98c-.23-.56-.42-1.11-.57-1.65.54-.13 1.1-.24 1.7-.33Zm-3.73 5.2C1.86 10.52.92 9.7.92 9.06c0-.66.94-1.48 2.4-2.1.35-.16.74-.3 1.14-.43a20 20 0 0 0 .92 2.53c-.37.86-.68 1.7-.91 2.51-.4-.12-.8-.27-1.15-.42Zm2.21 5.92c-.56-.33-.8-1.56-.61-3.14.04-.4.12-.8.2-1.22.82.2 1.7.35 2.63.45a20.2 20.2 0 0 0 1.7 2.07C8.13 16.51 6.86 17.2 6 17.2a.98.98 0 0 1-.47-.11Zm9.78-3.16c.19 1.58-.05 2.81-.6 3.14a.91.91 0 0 1-.48.1c-.85 0-2.12-.68-3.46-1.92.58-.61 1.15-1.3 1.7-2.07.93-.1 1.81-.26 2.62-.46.1.42.17.82.22 1.2Zm1.58-2.77c-.35.15-.74.3-1.14.42a20 20 0 0 0-.93-2.53c.38-.86.69-1.7.92-2.5.4.12.8.26 1.16.41 1.45.63 2.4 1.45 2.4 2.1 0 .65-.95 1.48-2.4 2.1Z"/><path fill="#61DAFB" d="M10.1 10.96c1.04 0 1.88-.85 1.88-1.9 0-1.04-.84-1.9-1.88-1.9s-1.88.86-1.88 1.9c0 1.05.84 1.9 1.88 1.9Z"/></svg>
